contributed-vectors/hashme.svg

<svg xmlns="http://www.w3.org/2000/svg" xml:space="preserve" style="fill-rule:evenodd;clip-rule:evenodd;stroke-linejoin:round;stroke-miterlimit:2" viewBox="0 0 192 192"><path d="M164.5 21.5c0-5.519-4.481-10-10-10h-133c-5.519 0-10 4.481-10 10v133c0 5.519 4.481 10 10 10h133c5.519 0 10-4.481 10-10v-133Z" style="fill:#fff" transform="translate(8 8)"/><path d="M107.177 37.721H82.353L51.152 153.115h24.824l31.201-115.394Z" style="fill:#ff837d" transform="matrix(.58363 0 0 .68537 37.303 30.603)"/><path d="M107.177 37.721H82.353L51.152 153.115h24.824l31.201-115.394Z" style="fill:#ff837d" transform="matrix(.58363 0 0 .68537 64.285 30.603)"/><path d="M54.836 153.115h20.17v9.385h-20.17z" style="fill:#ff837d" transform="matrix(3.37413 0 0 1.3143 -120.793 -122.187)"/><path d="M54.836 153.115h20.17v9.385h-20.17z" style="fill:#ff837d" transform="matrix(3.37413 0 0 1.3143 -125.312 -96.534)"/></svg>

<?xml version="1.0" encoding="UTF-8" standalone="no"?>
<!DOCTYPE svg PUBLIC "-//W3C//DTD SVG 1.1//EN" "http://www.w3.org/Graphics/SVG/1.1/DTD/svg11.dtd">
<svg width="100%" height="100%" viewBox="0 0 192 192" version="1.1" xmlns="http://www.w3.org/2000/svg" xmlns:xlink="http://www.w3.org/1999/xlink" xml:space="preserve" xmlns:serif="http://www.serif.com/" style="fill-rule:evenodd;clip-rule:evenodd;stroke-linejoin:round;stroke-miterlimit:2;">
    <g id="Layer1">
        <g transform="matrix(1,0,0,1,8,8)">
            <path d="M164.5,21.5C164.5,15.981 160.019,11.5 154.5,11.5L21.5,11.5C15.981,11.5 11.5,15.981 11.5,21.5L11.5,154.5C11.5,160.019 15.981,164.5 21.5,164.5L154.5,164.5C160.019,164.5 164.5,160.019 164.5,154.5L164.5,21.5Z" style="fill:white;"/>
        </g>
        <g transform="matrix(0.685369,0,0,0.685369,29.5732,30.6034)">
            <g transform="matrix(0.851562,0,0,1,11.2777,0)">
                <path d="M107.177,37.721L82.353,37.721L51.152,153.115L75.976,153.115L107.177,37.721Z" style="fill:rgb(255,131,125);"/>
            </g>
            <g transform="matrix(0.851562,0,0,1,50.6473,0)">
                <path d="M107.177,37.721L82.353,37.721L51.152,153.115L75.976,153.115L107.177,37.721Z" style="fill:rgb(255,131,125);"/>
            </g>
            <g transform="matrix(4.92308,0,0,1.91766,-219.394,-222.932)">
                <rect x="54.836" y="153.115" width="20.17" height="9.385" style="fill:rgb(255,131,125);"/>
            </g>
            <g transform="matrix(4.92308,0,0,1.91766,-225.988,-185.502)">
                <rect x="54.836" y="153.115" width="20.17" height="9.385" style="fill:rgb(255,131,125);"/>
            </g>
        </g>
    </g>
</svg>
